logo/dreamkam.svg

<svg width="101" height="14" viewBox="0 0 101 14" fill="none" xmlns="http://www.w3.org/2000/svg">
<path d="M0.607422 14V0.729187H4.35352C5.50803 0.729187 6.52886 0.984391 7.41602 1.49482C8.30318 2.00522 8.98677 2.73136 9.46682 3.6732C9.95293 4.61503 10.199 5.69664 10.2051 6.91799V7.76565C10.2051 9.01742 9.96203 10.1142 9.47592 11.056C8.99587 11.9979 8.30622 12.721 7.4069 13.2253C6.51367 13.7296 5.47157 13.9879 4.2806 14H0.607422ZM2.35742 2.16929V12.5691H4.19857C5.54752 12.5691 6.5957 12.1498 7.3431 11.3112C8.09661 10.4726 8.47328 9.27868 8.47328 7.72919V6.95445C8.47328 5.44751 8.11784 4.2778 7.4069 3.44533C6.70204 2.60679 5.69943 2.18145 4.39909 2.16929H2.35742ZM17.7246 8.63157H14.6074V14H12.8483V0.729187H17.2416C18.7363 0.729187 19.8848 1.06946 20.6869 1.75002C21.495 2.43058 21.8991 3.42103 21.8991 4.72137C21.8991 5.54776 21.6743 6.26781 21.2246 6.88153C20.7811 7.49525 20.1613 7.95404 19.3652 8.25784L22.4824 13.8907V14H20.6048L17.7246 8.63157ZM14.6074 7.20054H17.2962C18.1652 7.20054 18.8548 6.97572 19.3652 6.52606C19.8817 6.07641 20.14 5.47484 20.14 4.72137C20.14 3.90106 19.8939 3.27215 19.4017 2.83465C18.9156 2.39715 18.2108 2.17537 17.2871 2.16929H14.6074V7.20054ZM31.8613 7.86592H26.11V12.5691H32.791V14H24.36V0.729187H32.6999V2.16929H26.11V6.43492H31.8613V7.86592ZM42.2975 10.5365H36.7377L35.4889 14H33.6843L38.7519 0.729187H40.2832L45.36 14H43.5644L42.2975 10.5365ZM37.2663 9.09636H41.778L39.5176 2.88934L37.2663 9.09636ZM49.4069 0.729187L53.7455 11.5573L58.084 0.729187H60.3536V14H58.6036V8.83208L58.7676 3.25392L54.4108 14H53.071L48.7233 3.28127L48.8965 8.83208V14H47.1465V0.729187H49.4069ZM66.8157 7.82944L65.1934 9.51567V14H63.4434V0.729187H65.1934V7.29169L71.0905 0.729187H73.2051L67.9824 6.58987L73.6152 14H71.5189L66.8157 7.82944ZM82.4746 10.5365H76.9147L75.6661 14H73.8613L78.9287 0.729187H80.4601L85.5375 14H83.7416L82.4746 10.5365ZM77.4434 9.09636H81.955L79.6948 2.88934L77.4434 9.09636ZM89.5842 0.729187L93.9227 11.5573L98.2611 0.729187H100.531V14H98.7807V8.83208L98.9448 3.25392L94.5877 14H93.2483L88.9006 3.28127L89.0732 8.83208V14H87.3232V0.729187H89.5842Z" fill="#275553"/>
</svg>

<svg xmlns="http://www.w3.org/2000/svg" width="101" height="14" fill="none"><path fill="#275553" d="M.607 14V.73h3.747c1.154 0 2.175.254 3.062.765a5.15 5.15 0 0 1 2.05 2.178c.487.942.733 2.024.74 3.245v.848c0 1.251-.244 2.348-.73 3.29a5.061 5.061 0 0 1-2.07 2.17c-.892.504-1.934.762-3.125.774H.607Zm1.75-11.83v10.4H4.2c1.349 0 2.397-.42 3.144-1.259.754-.838 1.13-2.032 1.13-3.582v-.775c0-1.506-.355-2.676-1.066-3.509-.705-.838-1.708-1.264-3.008-1.276H2.357Zm15.368 6.462h-3.118V14h-1.759V.73h4.394c1.494 0 2.643.34 3.445 1.02.808.68 1.212 1.671 1.212 2.971 0 .827-.225 1.547-.674 2.16-.444.614-1.064 1.073-1.86 1.377l3.117 5.633V14h-1.877l-2.88-5.368ZM14.607 7.2h2.69c.868 0 1.558-.225 2.068-.675.517-.45.775-1.051.775-1.805 0-.82-.246-1.449-.738-1.886-.486-.438-1.191-.66-2.115-.666h-2.68v5.032Zm17.254.665H26.11v4.703h6.681V14H24.36V.73h8.34v1.44h-6.59v4.265h5.751v1.43Zm10.436 2.67h-5.56L35.49 14h-1.805L38.752.73h1.531L45.36 14h-1.796l-1.267-3.463Zm-5.03-1.44h4.511l-2.26-6.207-2.252 6.207ZM49.406.73l4.339 10.828L58.084.73h2.27V14h-1.75V8.832l.164-5.578L54.41 14h-1.34L48.723 3.281l.174 5.551V14h-1.75V.73h2.26Zm17.409 7.1-1.623 1.687V14h-1.75V.73h1.75v6.562L71.091.729h2.114l-5.223 5.86L73.615 14H71.52l-4.703-6.17Zm15.659 2.708h-5.56L75.666 14h-1.805L78.93.73h1.531L85.538 14h-1.796l-1.267-3.463Zm-5.032-1.44h4.512l-2.26-6.208-2.252 6.207ZM89.584.728l4.339 10.828L98.26.73h2.27V14h-1.75V8.832l.164-5.578L94.588 14h-1.34L88.901 3.281l.172 5.551V14h-1.75V.73h2.261Z"/></svg>
